X:1
T:Title
L:1/8
M:12/4
K:Bb
V:1 treble nm="Choir Aahs"
V:1
 D4 D2 E2 C2 D2 F2 E4 D6 | D4 D2[K:bass] A,2 C2 B,2 G,2 A,4 G,6 | %2
 G,4[K:treble] D2 E2 C2 D2 F4 E2- E2 D4 | A,4 B,2 D2 A,2 C2 B,4 A,2- A,2 G,4 | %4
 D4 F2 E2 D2 E2 F2 G4 D6 | D4 F2 E2 D2 E2 F2 G4 D6 | G4 G2 F2 E2 D2 C4 B,2- B,2 A,4 | %7
[M:14/4] D4 F2 E2[K:bass] D2 C2 B,4 A,4 G,8 |] %8

